X:1
T:Everyday Dirt
M:6/4
L:1/4
K:C
 C| C A, A,2| A A/2A/2 A E/2E/2| ^F/2F/2 F/2F/2 D2| F F F D| G G G G/2G/2|\
 A G G z|
M:6/4
 G G G =F E D| C2 z2 z2| z||
